packages/katcn/src/icons/svg/cancel-solid.svg

<svg xmlns="http://www.w3.org/2000/svg" fill="none" viewBox="0 0 24 24"><path fill="#000" d="M12 2C6.5 2 2 6.5 2 12s4.5 10 10 10 10-4.5 10-10S17.5 2 12 2m4 12.6c.4.4.4 1 0 1.4-.2.2-.4.3-.7.3s-.5-.1-.7-.3L12 13.4 9.4 16c-.2.2-.5.3-.7.3-.3 0-.5-.1-.7-.3-.4-.4-.4-1 0-1.4l2.6-2.6L8 9.4c-.4-.4-.4-1 0-1.4s1-.4 1.4 0l2.6 2.6L14.6 8c.4-.4 1-.4 1.4 0s.4 1 0 1.4L13.4 12z"/></svg>

<svg width="24" height="24" viewBox="0 0 24 24" fill="none" xmlns="http://www.w3.org/2000/svg">
<path d="M12 2C6.5 2 2 6.5 2 12C2 17.5 6.5 22 12 22C17.5 22 22 17.5 22 12C22 6.5 17.5 2 12 2ZM16 14.6C16.4 15 16.4 15.6 16 16C15.8 16.2 15.6 16.3 15.3 16.3C15 16.3 14.8 16.2 14.6 16L12 13.4L9.4 16C9.2 16.2 8.9 16.3 8.7 16.3C8.4 16.3 8.2 16.2 8 16C7.6 15.6 7.6 15 8 14.6L10.6 12L8 9.4C7.6 9 7.6 8.4 8 8C8.4 7.6 9 7.6 9.4 8L12 10.6L14.6 8C15 7.6 15.6 7.6 16 8C16.4 8.4 16.4 9 16 9.4L13.4 12L16 14.6Z" fill="black"/>
</svg>
